packages/icons/svg/24/Roll.svg

<svg width="24" height="24" viewBox="0 0 24 24" fill="none" xmlns="http://www.w3.org/2000/svg">
<path d="M5.99988 13.5858L5.99989 12C5.99989 8.68629 8.68618 6 11.9999 6C13.035 6 14.0061 6.26128 14.8538 6.72067C15.3394 6.98381 15.9463 6.80349 16.2095 6.31792C16.4726 5.83235 16.2923 5.22541 15.8067 4.96227C14.6737 4.34827 13.376 4 11.9999 4C7.58161 4 3.99989 7.58172 3.99989 12L3.99988 13.5856L2.70712 12.2927C2.31661 11.9022 1.68344 11.9022 1.29291 12.2927C0.902376 12.6832 0.902362 13.3164 1.29288 13.7069L4.99996 17.4142L8.70708 13.7071C9.0976 13.3165 9.0976 12.6834 8.70708 12.2928C8.31655 11.9023 7.68339 11.9023 7.29286 12.2928L5.99988 13.5858Z" fill="#858585"/>
<path d="M7.79045 17.6822C7.52732 18.1677 7.70765 18.7747 8.19322 19.0378C9.32621 19.6518 10.6239 20 11.9999 20C16.4182 20 19.9999 16.4183 19.9999 12V10.414L21.293 11.707C21.6835 12.0976 22.3167 12.0975 22.7072 11.707C23.0977 11.3165 23.0977 10.6833 22.7072 10.2928L19 6.58577L15.2929 10.2929C14.9024 10.6834 14.9024 11.3166 15.2929 11.7071C15.6834 12.0976 16.3166 12.0976 16.7071 11.7071L17.9999 10.4143V12C17.9999 15.3137 15.3136 18 11.9999 18C10.9648 18 9.99379 17.7387 9.14609 17.2794C8.66051 17.0163 8.05357 17.1966 7.79045 17.6822Z" fill="#858585"/>
</svg>

<svg width="24" height="24" fill="none" xmlns="http://www.w3.org/2000/svg" viewBox="0 0 24 24"><path d="M6 13.586V12a6 6 0 018.854-5.28 1 1 0 00.953-1.758A8 8 0 004 12v1.586l-1.293-1.293a1 1 0 00-1.414 1.414L5 17.414l3.707-3.707a1 1 0 00-1.414-1.414L6 13.586zM7.79 17.682a1 1 0 00.403 1.356A8 8 0 0020 12v-1.586l1.293 1.293a1 1 0 101.414-1.414L19 6.586l-3.707 3.707a1 1 0 001.414 1.414L18 10.414V12a6 6 0 01-8.854 5.28 1 1 0 00-1.356.402z" fill="currentColor"></path></svg>
